Sources/FrostedUI/Resources/Icons.xcassets/webcamOff20.imageset/webcam-off-20.svg

<svg width="20" height="20" viewBox="0 0 20 20" fill="none" xmlns="http://www.w3.org/2000/svg" data-fui-icon="true">
  <path
    d="M1.65723 1.65796C1.92599 1.3892 2.34761 1.36707 2.6416 1.59155L18.4072 17.3572C18.633 17.6513 18.612 18.0743 18.3428 18.3435C18.05 18.636 17.575 18.636 17.2822 18.3435L14.407 15.4683C14.2648 15.3261 14.0274 15.3537 13.9066 15.5145C13.0866 16.606 11.7837 17.3132 10.3125 17.3132H5.9375C3.53002 17.3132 1.56414 15.4221 1.44336 13.0447L1.4375 12.8132V7.18823C1.4375 6.01327 1.88872 4.94405 2.62634 4.14271C2.74567 4.01307 2.74954 3.81082 2.62495 3.68622L1.65723 2.71851C1.36444 2.42572 1.36467 1.95088 1.65723 1.65796ZM4.12643 5.1877C4.00819 5.06947 3.81643 5.0642 3.70475 5.18863C3.22854 5.7192 2.9375 6.41919 2.9375 7.18823V12.8132L2.94141 12.9675C3.02203 14.5524 4.33264 15.8132 5.9375 15.8132H10.3125C11.4349 15.8132 12.4105 15.1945 12.924 14.2808C12.9885 14.166 12.9624 14.0236 12.8693 13.9305L4.12643 5.1877ZM10.3125 2.68823C12.0318 2.68823 13.5242 3.65198 14.2814 5.06855C14.3836 5.25968 14.6409 5.31719 14.801 5.17117L15.6328 4.41284C16.7559 3.38825 18.562 4.18434 18.5625 5.70483V14.2957C18.5625 14.4699 18.5379 14.6341 18.4935 14.7872C18.436 14.9851 18.1904 15.0193 18.0447 14.8736L17.154 13.9829C17.0954 13.9243 17.0625 13.8448 17.0625 13.7619V5.70483C17.0622 5.48813 16.805 5.37443 16.6445 5.52026L14.6475 7.34253C14.1379 7.80724 13.3642 7.46585 13.29 6.83472C13.1156 5.34441 11.8491 4.18823 10.3125 4.18823H7.48882C7.40594 4.18823 7.32645 4.15531 7.26785 4.0967L5.91491 2.74377C5.89448 2.72334 5.90861 2.68823 5.9375 2.68823H10.3125Z"
    fill="currentColor"
  />
</svg>

<svg xmlns="http://www.w3.org/2000/svg" width="20" height="20" fill="none" data-fui-icon="true" viewBox="0 0 20 20"><path fill="currentColor" d="M1.657 1.658a.75.75 0 0 1 .985-.066l15.765 15.765a.75.75 0 0 1-1.125.986l-2.875-2.875c-.142-.142-.38-.114-.5.046a4.48 4.48 0 0 1-3.594 1.8H5.937a4.5 4.5 0 0 1-4.494-4.27l-.006-.23V7.187c0-1.175.452-2.244 1.19-3.045a.33.33 0 0 0-.002-.457l-.968-.967a.75.75 0 0 1 0-1.061m2.47 3.53a.29.29 0 0 0-.422 0 2.98 2.98 0 0 0-.768 2v5.625l.004.154a3 3 0 0 0 2.997 2.846h4.375a2.99 2.99 0 0 0 2.611-1.532.29.29 0 0 0-.055-.35zm6.186-2.5c1.719 0 3.211.964 3.968 2.38.103.192.36.25.52.103l.832-.758c1.123-1.025 2.929-.229 2.93 1.292v8.59q-.001.263-.07.492c-.057.198-.303.232-.448.087l-.891-.891a.31.31 0 0 1-.091-.221V5.705a.25.25 0 0 0-.418-.185l-1.997 1.823c-.51.464-1.284.123-1.358-.508a3 3 0 0 0-2.977-2.647H7.489a.31.31 0 0 1-.221-.091L5.915 2.744c-.02-.02-.006-.056.022-.056z"/></svg>
